X: 2
T:Ding Dong
% Nottingham Music Database
S:Trad
M:4/4
L:1/4
K:Bb
P:A
"Bb"BB "Eb"c/2B/2A/2G/2|"F"F3F|"Eb"GB "F7"BA|"Bb"B2 B2::
P:B
"Bb"f3/2e/2 d/2e/2f/2d/2|"Eb"e3/2d/2 "F7"c/2d/2e/2c/2|\
"Bb"d3/2c/2 "Gm"B/2c/2d/2B/2|"Cm"c3/2B/2 "F7"A/2B/2c/2A/2|
"Gm"B3/2A/2 "C7"G/2A/2B/2G/2|"F7"A3/2G/2 FF|"Eb"GB "F7"BA|"Bb"B2 B2:|


